!!!OTL: Lied des Lebens.
!!!OTL-incipit:FLUECHTIGER ALS WIND UND WELLE
!!!COM: J. A. Hiller
!!!ARE: Europa, Mitteleuropa, Deutschland
!!!SCT: F0307
!!!TXL: @@DE
!!!YEM: Copyright 1995, estate of Helmut Schaffrath.
**kern	**text
*ICvox	*
*clefG2	*
*M4/4	*
*met(c)	*
*k[b-e-]	*
*B-:	*
=1	=1
!LO:TX:a:t=Heiter und feſt.	!
{4b-/	1._Flüchti-
8dd/L	.
8ccJ	.
4b-/	-ger
4f	als
=2	=2
4dd	Wind
(8ffL	und
8ee-J)	.
(8ee-L	Welle
8ddJ)	.
4dd}	.
=3	=3
{4.cc	flieht
8bn	die
(8cc/L	Ʒeit
8ddJ)	.
(8ee-/L	was
8ccJ)	.
=4	=4
4b-/	hält
8dd/L	ſie
8ccJ	.
4b-/	auf?
4r}	.
=5	=5
{4b-/	Sie
8dd/L	ge-
8ccJ	.
4b-/	-nießen
4f	.
=6	=6
4dd	auf
(8ffL	der
8ee-J)	.
(8ee-L	Stelle,
8ddJ)	.
4dd}	.
=7	=7
{4.cc	ſie
8bn	er-
(8cc/L	-grei-
8ddJ)	.
(8ee-/L	-fen
8ccJ)	.
=8	=8
4b-/	ſchnell
8dd/L	im
8ccJ	.
4b-/	Lauf:
4r}	.
=9	=9
{4cc/	das,
(8aL	ihr
8b-J)	.
4cc/	Brü-
(8aL	-der,
8b-J)	.
=10	=10
8cc/L	hält
8ee-J	.
8dd/L	ihr
8ffJ	.
4ff/	Schweben,
4ee-/}	.
=11	=11
{4.dd/	hält
8ee-/	die
4.ff/	Flucht
8dd/	der
=12	=12
(>8gg/L	Ta-
8ffJ)	.
(>8ee-/L	-ge
8ddJ)	.
(4dd/	ein;
8cc/)	.
8r}	.
=13	=13
{4b-/	ſchnel-
8dd/L	-ler
8ccJ	.
4b-/	Gang
4f	iſt
=14	=14
4dd	un-
(8ffL	-ſer
8ee-J)	.
(8ee-L	Le-
8ddJ)	.
4dd}	-ben;
=15	=15
{4.cc	laßt
8bn	uns
(8cc/L	Ro-
8ddJ)	.
(8ee-/L	-ſen
8ccJ)	.
=16	=16
4b-/	dar-
8dd/L	-auf
8ccJ	.
4b-/	ſtreun.
4r}	.
==	==
!!!AGN: Jugend - Lied, Belehrung, Moral, Lebenslauf
!!!ONB: ESAC (Essen Associative Code) Database: FINK
!!!AMT: simple quadruple
!!!AIN: vox
!!!EED: Helmut Schaffrath
!!!EEV: 1.0
!!!RDF**kern: > = above
!!!GTL: Jugendlieder
!!Text: J. G. Herder
!!!source: Musikalischer Hausschatz der Deutschen. Eine Sammlung von über 1000 Liedern und Gesängen mit Singstimmen und Klavierbegleitung. Leipzig, Litterarisches Verlags-Haus.
!!!page: 184
!!!URL-scan: https://www.digitale-sammlungen.de/en/view/bsb11144622?page=182,183
!!!ENC: Anna Maria Matuszewska
!!!EEV: 2024/07/30
*-	*-